static/img/kroki/c9f5f6c24e5a72d045b73276da6438a2.svg

<?xml version="1.0" encoding="us-ascii" standalone="no"?><svg xmlns="http://www.w3.org/2000/svg" xmlns:xlink="http://www.w3.org/1999/xlink" contentStyleType="text/css" height="374px" preserveAspectRatio="none" style="width:397px;height:374px;" version="1.1" viewBox="0 0 397 374" width="397px" zoomAndPan="magnify"><defs/><g><!--class certificate--><g id="elem_certificate"><rect codeLine="23" fill="#3D176E" height="39.7891" id="certificate" rx="2.5" ry="2.5" style="stroke:#000D19;stroke-width:0.5;" width="125" x="7" y="167.79"/><ellipse cx="22" cy="187.6845" fill="#ADD1B2" rx="11" ry="11" style="stroke:#181818;stroke-width:1.0;"/><path d="M24.9688,193.3252 Q24.3906,193.622 23.75,193.7627 Q23.1094,193.9189 22.4063,193.9189 Q19.9063,193.9189 18.5781,192.2783 Q17.2656,190.622 17.2656,187.497 Q17.2656,184.372 18.5781,182.7158 Q19.9063,181.0595 22.4063,181.0595 Q23.1094,181.0595 23.75,181.2158 Q24.4063,181.372 24.9688,181.6689 L24.9688,184.3877 Q24.3438,183.8095 23.75,183.5439 Q23.1563,183.2627 22.5313,183.2627 Q21.1875,183.2627 20.5,184.3408 Q19.8125,185.4033 19.8125,187.497 Q19.8125,189.5908 20.5,190.6689 Q21.1875,191.7314 22.5313,191.7314 Q23.1563,191.7314 23.75,191.4658 Q24.3438,191.1845 24.9688,190.6064 L24.9688,193.3252 Z " fill="#000000"/><text fill="#D9B8FF" font-family="Helvetica" font-size="17" lengthAdjust="spacing" textLength="83" x="41" y="193.5698">certificate</text></g><!--class digitalocean_certificate--><g id="elem_digitalocean_certificate"><rect codeLine="26" fill="#3D176E" height="39.7891" id="digitalocean_certificate" rx="2.5" ry="2.5" style="stroke:#000D19;stroke-width:0.5;" width="235" x="56" y="328.58"/><ellipse cx="71" cy="348.4745" fill="#ADD1B2" rx="11" ry="11" style="stroke:#181818;stroke-width:1.0;"/><path d="M73.9688,354.1152 Q73.3906,354.412 72.75,354.5527 Q72.1094,354.7089 71.4063,354.7089 Q68.9063,354.7089 67.5781,353.0683 Q66.2656,351.412 66.2656,348.287 Q66.2656,345.162 67.5781,343.5058 Q68.9063,341.8495 71.4063,341.8495 Q72.1094,341.8495 72.75,342.0058 Q73.4063,342.162 73.9688,342.4589 L73.9688,345.1777 Q73.3438,344.5995 72.75,344.3339 Q72.1563,344.0527 71.5313,344.0527 Q70.1875,344.0527 69.5,345.1308 Q68.8125,346.1933 68.8125,348.287 Q68.8125,350.3808 69.5,351.4589 Q70.1875,352.5214 71.5313,352.5214 Q72.1563,352.5214 72.75,352.2558 Q73.3438,351.9745 73.9688,351.3964 L73.9688,354.1152 Z " fill="#000000"/><text fill="#D9B8FF" font-family="Helvetica" font-size="17" lengthAdjust="spacing" textLength="193" x="90" y="354.3598">digitalocean_certificate</text></g><!--class digitalocean_resource--><g id="elem_digitalocean_resource"><rect codeLine="29" fill="#3D176E" height="39.7891" id="digitalocean_resource" rx="2.5" ry="2.5" style="stroke:#000D19;stroke-width:0.5;" width="223" x="167" y="167.79"/><ellipse cx="182" cy="187.6845" fill="#ADD1B2" rx="11" ry="11" style="stroke:#181818;stroke-width:1.0;"/><path d="M184.9688,193.3252 Q184.3906,193.622 183.75,193.7627 Q183.1094,193.9189 182.4063,193.9189 Q179.9063,193.9189 178.5781,192.2783 Q177.2656,190.622 177.2656,187.497 Q177.2656,184.372 178.5781,182.7158 Q179.9063,181.0595 182.4063,181.0595 Q183.1094,181.0595 183.75,181.2158 Q184.4063,181.372 184.9688,181.6689 L184.9688,184.3877 Q184.3438,183.8095 183.75,183.5439 Q183.1563,183.2627 182.5313,183.2627 Q181.1875,183.2627 180.5,184.3408 Q179.8125,185.4033 179.8125,187.497 Q179.8125,189.5908 180.5,190.6689 Q181.1875,191.7314 182.5313,191.7314 Q183.1563,191.7314 183.75,191.4658 Q184.3438,191.1845 184.9688,190.6064 L184.9688,193.3252 Z " fill="#000000"/><text fill="#D9B8FF" font-family="Helvetica" font-size="17" lengthAdjust="spacing" textLength="181" x="201" y="193.5698">digitalocean_resource</text></g><!--class resource--><g id="elem_resource"><rect codeLine="32" fill="#3D176E" height="39.7891" id="resource" rx="2.5" ry="2.5" style="stroke:#000D19;stroke-width:0.5;" width="113" x="117" y="7"/><ellipse cx="132" cy="26.8945" fill="#ADD1B2" rx="11" ry="11" style="stroke:#181818;stroke-width:1.0;"/><path d="M134.9688,32.5352 Q134.3906,32.832 133.75,32.9727 Q133.1094,33.1289 132.4063,33.1289 Q129.9063,33.1289 128.5781,31.4883 Q127.2656,29.832 127.2656,26.707 Q127.2656,23.582 128.5781,21.9258 Q129.9063,20.2695 132.4063,20.2695 Q133.1094,20.2695 133.75,20.4258 Q134.4063,20.582 134.9688,20.8789 L134.9688,23.5977 Q134.3438,23.0195 133.75,22.7539 Q133.1563,22.4727 132.5313,22.4727 Q131.1875,22.4727 130.5,23.5508 Q129.8125,24.6133 129.8125,26.707 Q129.8125,28.8008 130.5,29.8789 Q131.1875,30.9414 132.5313,30.9414 Q133.1563,30.9414 133.75,30.6758 Q134.3438,30.3945 134.9688,29.8164 L134.9688,32.5352 Z " fill="#000000"/><text fill="#D9B8FF" font-family="Helvetica" font-size="17" lengthAdjust="spacing" textLength="71" x="151" y="32.7798">resource</text></g><!--reverse link resource to certificate--><g id="link_resource_certificate"><path codeLine="35" d="M151.0976,62.1076 C131.1076,92.6276 102.11,136.9 82.09,167.46 " fill="none" id="resource-backto-certificate" style="stroke:#FFAF37;stroke-width:2.0;"/><polygon fill="none" points="160.96,47.05,146.0783,58.8201,156.1168,65.3951,160.96,47.05" style="stroke:#FFAF37;stroke-width:2.0;"/></g><!--reverse link certificate to digitalocean_certificate--><g id="link_certificate_digitalocean_certificate"><path codeLine="36" d="M91.9024,222.8976 C111.8924,253.4176 140.89,297.69 160.91,328.25 " fill="none" id="certificate-backto-digitalocean_certificate" style="stroke:#FFAF37;stroke-width:2.0;"/><polygon fill="none" points="82.04,207.84,86.8832,226.1851,96.9217,219.6101,82.04,207.84" style="stroke:#FFAF37;stroke-width:2.0;"/></g><!--reverse link digitalocean_resource to digitalocean_certificate--><g id="link_digitalocean_resource_digitalocean_certificate"><path codeLine="37" d="M255.9022,222.8546 C235.7222,253.3746 206.42,297.69 186.21,328.25 " fill="none" id="digitalocean_resource-backto-digitalocean_certificate" style="stroke:#FFAF37;stroke-width:2.0;"/><polygon fill="none" points="265.83,207.84,250.8974,219.5454,260.9071,226.1639,265.83,207.84" style="stroke:#FFAF37;stroke-width:2.0;"/></g><!--reverse link resource to digitalocean_resource--><g id="link_resource_digitalocean_resource"><path codeLine="38" d="M196.0978,62.0646 C216.2778,92.5846 245.58,136.9 265.79,167.46 " fill="none" id="resource-backto-digitalocean_resource" style="stroke:#FFAF37;stroke-width:2.0;"/><polygon fill="none" points="186.17,47.05,191.0929,65.3739,201.1026,58.7554,186.17,47.05" style="stroke:#FFAF37;stroke-width:2.0;"/></g><!--SRC=[ZP1BRy8m48Jl_XMME2D1KGj8lT18LNj1LUczMknri4ZiQBqfee__Nb8UCWa9FNhcyyxihgn6YNd1MvbZlaGA8gojAu0WbpCYlqbyvadsZ04p6jVDH-_uAZ277EKJPX_8La6TU5jPjNOOWho9h0TGwvHywVH-F1EuiBFGSKGb6OGmOoQxB1cZCdgwd1XJ9-j3UoCz7DzX0_EaaGx8O33GmsaTkHhLkVU9MDXFbCFuQ7FFsAZPYFYZEbjMH5IoiUZHR-tu0bfRbyhRI7lTToA7TAOlLg3zfg8DP26E2Oo4dhS59esjS3hHPdmHVcw3XQfE9nKIMxChp2Y_XFWvoDgcbY7p2i6z_uSX3BuaTGQSQwVN_NU_tu-3HHomTzlonUNGAv-wkACdVW40]--></g></svg>

<svg xmlns="http://www.w3.org/2000/svg" width="397" height="374" viewBox="0 0 397 374"><rect width="125" height="39.789" x="7" y="167.79" fill="#3D176E" rx="2.5" ry="2.5" style="stroke:#000d19;stroke-width:.5"/><circle cx="22" cy="187.685" r="11" fill="#ADD1B2" style="stroke:#181818;stroke-width:1"/><path d="M24.969 193.325q-.578.297-1.219.438-.64.156-1.344.156-2.5 0-3.828-1.64-1.312-1.657-1.312-4.782t1.312-4.781q1.328-1.656 3.828-1.656.703 0 1.344.156.656.156 1.219.453v2.719q-.625-.578-1.219-.844-.594-.281-1.219-.281-1.343 0-2.031 1.078-.687 1.062-.687 3.156t.687 3.172q.688 1.062 2.031 1.062.625 0 1.219-.265.594-.281 1.219-.86z"/><text x="41" y="193.57" fill="#D9B8FF" font-family="Helvetica" font-size="17" textLength="83">certificate</text><rect width="235" height="39.789" x="56" y="328.58" fill="#3D176E" rx="2.5" ry="2.5" style="stroke:#000d19;stroke-width:.5"/><circle cx="71" cy="348.474" r="11" fill="#ADD1B2" style="stroke:#181818;stroke-width:1"/><path d="M73.969 354.115q-.578.297-1.219.438-.64.156-1.344.156-2.5 0-3.828-1.64-1.312-1.657-1.312-4.782t1.312-4.781q1.328-1.656 3.828-1.656.703 0 1.344.156.656.156 1.219.453v2.719q-.625-.579-1.219-.844-.594-.281-1.219-.281-1.344 0-2.031 1.078-.687 1.062-.687 3.156t.687 3.172q.688 1.062 2.031 1.062.625 0 1.219-.265.594-.281 1.219-.86z"/><text x="90" y="354.36" fill="#D9B8FF" font-family="Helvetica" font-size="17" textLength="193">digitalocean_certificate</text><rect width="223" height="39.789" x="167" y="167.79" fill="#3D176E" rx="2.5" ry="2.5" style="stroke:#000d19;stroke-width:.5"/><circle cx="182" cy="187.685" r="11" fill="#ADD1B2" style="stroke:#181818;stroke-width:1"/><path d="M184.969 193.325q-.578.297-1.219.438-.64.156-1.344.156-2.5 0-3.828-1.64-1.312-1.657-1.312-4.782t1.312-4.781q1.328-1.656 3.828-1.656.703 0 1.344.156.656.156 1.219.453v2.719q-.625-.578-1.219-.844-.594-.281-1.219-.281-1.344 0-2.031 1.078-.687 1.062-.687 3.156t.687 3.172q.688 1.062 2.031 1.062.625 0 1.219-.265.594-.281 1.219-.86z"/><text x="201" y="193.57" fill="#D9B8FF" font-family="Helvetica" font-size="17" textLength="181">digitalocean_resource</text><rect width="113" height="39.789" x="117" y="7" fill="#3D176E" rx="2.5" ry="2.5" style="stroke:#000d19;stroke-width:.5"/><circle cx="132" cy="26.895" r="11" fill="#ADD1B2" style="stroke:#181818;stroke-width:1"/><path d="M134.969 32.535q-.578.297-1.219.438-.64.156-1.344.156-2.5 0-3.828-1.64-1.312-1.657-1.312-4.782t1.312-4.781q1.328-1.656 3.828-1.656.703 0 1.344.156.656.156 1.219.453v2.719q-.625-.578-1.219-.844-.594-.281-1.219-.281-1.344 0-2.031 1.078-.687 1.062-.687 3.156t.687 3.172q.688 1.062 2.031 1.062.625 0 1.219-.265.594-.281 1.219-.86z"/><text x="151" y="32.78" fill="#D9B8FF" font-family="Helvetica" font-size="17" textLength="71">resource</text><path fill="none" d="M151.098 62.108C131.108 92.628 102.11 136.9 82.09 167.46m78.87-120.41-14.882 11.77 10.039 6.575zM91.902 222.898c19.99 30.52 48.988 74.792 69.008 105.352M82.04 207.84l4.843 18.345 10.039-6.575zm173.862 15.015c-20.18 30.52-49.482 74.835-69.692 105.395m79.62-120.41-14.933 11.705 10.01 6.619zM196.098 62.065c20.18 30.52 49.482 74.835 69.692 105.395M186.17 47.05l4.923 18.324 10.01-6.619z" style="stroke:#ffaf37;stroke-width:2"/></svg>
